X:1
T:Title
%%score { 1 | 2 }
L:1/8
Q:1/4=87
M:3/8
K:C
V:1 treble nm="Grand Piano"
V:2 bass 
V:1
 [EG][Ec]>[EG] | [FB]2 [FA] | [DF][FB]>[DF] | [_EA]2 [=EG] | [CE][EA]>[CE] | [DG]2 [DF] | %6
w: Harold~Marlow * *||||||
 [B,D][B,G]>[B,F] | [CE]3 | [EG][Ec]>[EG] | [FB]2 [FA] | [DF][FB]>[DF] | [_EA]2 [=EG] | %12
w: ||||||
 [^CE][CA]>[CE] | [A,DG]2 [A,DF] | [G,B,D][G,B,E]>[F,B,D] | [E,C]3 | [G,CE]3 | [CEA]3 | %18
w: ||||||
 [G,CE][CEA]>[G,CE] | [G,B,F]2 [G,B,F] | [G,B,F]3 | [FB]3 | [DF][FB]>[FA] | [EG]2 z | [EG]3 | %25
w: |||||||
 [Ec]3 | [Ge][Gc]>[FA] | [EG]2 [EG] | B3 | A3 | GA>B | [Ec]2 z |] %32
w: |||||||
V:2
 [C,G,][C,G,]>[C,G,] | [D,G,]2 [D,G,] | [G,,G,][G,,G,]>[G,,G,] | [C,^F,]2 [C,G,] | %4
 [C,G,][C,G,]>[C,G,] | [B,,G,]2 [B,,G,] | [G,,G,][G,,G,]>[G,,G,] | [C,G,]3 | [C,G,][C,G,]>[C,G,] | %9
 [D,G,]2 [D,G,] | [G,,G,][G,,G,]>[G,,G,] | [C,^F,]2 [C,G,] | [A,,A,][A,,A,]>[A,,A,] | D,2 D, | %14
 G,,G,,>G,, | C,3 | C,3 | C,3 | C,C,>C, | D,2 D, | G,,3 | [D,G,]3 | [G,,G,][G,,G,]>[G,,G,] | %23
 [C,G,]2 z | [C,G,]3 | [C,G,]3 | [C,C][E,C]>[F,C] | [C,C]2 [C,C] | [F,CF]3 | [^F,C_E]3 | %30
 [G,B,F][G,CF]>[G,DF] | [C,C]2 z |] %32

